icon-themes/sifr_svg/cmd/sc_avmediaplayer.svg

<svg viewBox="0 0 16 16" xmlns="http://www.w3.org/2000/svg"><path d="m0 1v14h5v-14zm1 2h3v2h-3zm7 2v2 4a2 2 0 0 0 -2 2 2 2 0 0 0 2 2 2 2 0 0 0 2-2v-6h4v4a2 2 0 0 0 -2 2 2 2 0 0 0 2 2 2 2 0 0 0 2-2v-8zm-7 2h3v2h-3zm0 4h3v2h-3z" fill="#555753"/></svg>

<svg xmlns="http://www.w3.org/2000/svg" viewBox="0 0 16 16">
  <path
     style="fill:#555753"
     d="M 0 1 L 0 15 L 5 15 L 5 1 L 0 1 z M 1 3 L 4 3 L 4 5 L 1 5 L 1 3 z M 8 5 L 8 7 L 8 11 A 2 2 0 0 0 6 13 A 2 2 0 0 0 8 15 A 2 2 0 0 0 10 13 L 10 7 L 14 7 L 14 11 A 2 2 0 0 0 12 13 A 2 2 0 0 0 14 15 A 2 2 0 0 0 16 13 L 16 5 L 8 5 z M 1 7 L 4 7 L 4 9 L 1 9 L 1 7 z M 1 11 L 4 11 L 4 13 L 1 13 L 1 11 z "
     />
</svg>
